X: 31171
T: Paddy Fahey's
R: jig
M: 6/8
K: Gmajor
|:DGA B2B|cBc d2g|gfd Bcd|cAF AFE|
DGA B2B|cBc d2g|gfd Bcd|cAF G3:|
|:g2d fga|gfd Bcd|cAA f2g|agf def|
g2a bag|fdg fdc|B2G AGE|1 DGF GBd:|2 DGF G3||

